X:39
T: Graf und Nonne (Die Nonne)
N: Q0155l
O: Mitteleuropa, Deutschland (BRD) , Niedersachsen, Hildesheim, Mehle
R: Ballade, Standesunterschied, vergebliche Werbung, Liebe, Klage
M: 4/4
L: 1/8
K: G
D2 | G3DB,2D2 | G2B2B2
d2 | A3GF2G2 | A4z2
D2 | G3DB,2D2 | G2B2B2
d2 | A3GF2G2 | A4z2
GA | B3BB2B2 | B2d2d2
cB | A3Bc2c2 | c2e2d2
c2 | B3AB2c2 | d4
e4 | d3Bc2d2 | B4z2

